X:180 
T:Reel of Mullinavat (reel), The 
B:CRE3.153 (RÃÂÃÂÃÂÃÂ­l Mhuileann an Bhata)
F:file ID: cre.3/180reel_mul
L:1/8
R:reel
Q:180
M:C
K:Em
ef|(3gfe fd edBA|GBAG EDB,D|GEE2 GABd|edBA Bdef|
"5"ge (3gfe dBBA|GBAG E2DE|GEE2 G3A|(3B^cd ed e3f|
"9"(3gfe fd edBA|G3F E3F|GEE2 GABd|edBA (3B^cd ef|
"13"gefe dBBA|GBAG EDB,D|GEE2 G3A|(3B^cd ed e2||
ef|"17"gdBd g3b|afdf afdf|gBB2 g3b|afde feef|
"21"gBB2 gbag|afde faa2|(3bag gf gfed|(3Bcd e2 edef|
"25"gdBd gabg|afde faa2|gBB2 gabg|agfg e2ef|
"29"g2g2 gbag|fdd2 faa2|(3bga (3agf gfed|(3Bcd ed e2||

%%%

